icon-themes/elementary_svg/sw/res/sidebar/pageproppanel/formatmirror_24x24.svg

<svg viewBox="0 0 26 26" xmlns="http://www.w3.org/2000/svg" xmlns:xlink="http://www.w3.org/1999/xlink"><linearGradient id="a" gradientTransform="matrix(.04349113 0 0 .0082353 -1.718936 18.980547)" gradientUnits="userSpaceOnUse" x1="302.85715" x2="302.85715" y1="366.64789" y2="609.50507"><stop offset="0" stop-opacity="0"/><stop offset=".5"/><stop offset="1" stop-opacity="0"/></linearGradient><radialGradient id="b" cx="605.71429" cy="486.64789" gradientTransform="matrix(-.01204859 0 0 .0082353 10.761206 18.980564)" gradientUnits="userSpaceOnUse" r="117.14286" xlink:href="#c"/><linearGradient id="c"><stop offset="0"/><stop offset="1" stop-opacity="0"/></linearGradient><radialGradient id="d" cx="605.71429" cy="486.64789" gradientTransform="matrix(.01204859 0 0 .0082353 17.238794 18.980564)" gradientUnits="userSpaceOnUse" r="117.14286" xlink:href="#c"/><linearGradient id="e" gradientTransform="matrix(0 .48571543 -.45629666 0 23.651133 2.342824)" gradientUnits="userSpaceOnUse" x1="9.848163" x2="44.18507" y1="29.289719" y2="26.732151"><stop offset="0" stop-color="#f4f4f4"/><stop offset="1" stop-color="#dbdbdb"/></linearGradient><linearGradient id="f" gradientTransform="matrix(0 .40540511 -.51351351 0 24.32432 4.269687)" gradientUnits="userSpaceOnUse" x1="4.843375" x2="39.786461" y1="23.277712" y2="24.30217"><stop offset="0" stop-color="#fff"/><stop offset=".13011844" stop-color="#fff" stop-opacity=".235294"/><stop offset="1" stop-color="#fff" stop-opacity=".156863"/><stop offset="1" stop-color="#fff" stop-opacity=".392157"/></linearGradient><linearGradient id="g" gradientTransform="matrix(.04349113 0 0 .0082353 -1.718936 18.980547)" gradientUnits="userSpaceOnUse" x1="302.85715" x2="302.85715" xlink:href="#a" y1="366.64789" y2="609.50507"/><linearGradient id="h" gradientTransform="matrix(0 .48571543 -.45629666 0 23.651133 2.342824)" gradientUnits="userSpaceOnUse" x1="9.848163" x2="44.18507" xlink:href="#e" y1="29.289719" y2="26.732151"/><linearGradient id="i" gradientTransform="matrix(0 .40540511 -.51351351 0 24.32432 4.269687)" gradientUnits="userSpaceOnUse" x1="4.843375" x2="39.786461" xlink:href="#f" y1="23.277712" y2="24.30217"/><clipPath id="j"><path d="m13 5h13v19h-13z"/></clipPath><clipPath id="k"><path d="m0 5h13v19h-13z"/></clipPath><g clip-path="url(#j)"><g transform="translate(12)"><g transform="translate(-2)"><path d="m3.500001 22h21v2h-21z" fill="url(#a)" opacity=".15"/><path d="m3.4999999 22.000085v1.999891c-.6204724.0038-1.4999999-.448075-1.4999999-1.000075 0-.551999.6924-.999816 1.4999999-.999816z" fill="url(#b)" opacity=".15"/><path d="m24.5 22.000085v1.999891c.620472.0038 1.5-.448075 1.5-1.000075 0-.551999-.6924-.999816-1.5-.999816z" fill="url(#d)" opacity=".15"/></g><path d="m22.500038 5.499955c0 3.8955809-.0014 17.000059-.0014 17.000059l-20.998716.000021s0-11.333386 0-17.00008h21.000054z" fill="url(#e)"/><g fill="none"><path d="m2.4999999 21.5v-15.0000003h19.0000001v15.0000003z" stroke="url(#f)" stroke-linecap="round"/><path d="m22.500038 5.499955c0 3.8955809-.0014 17.000059-.0014 17.000059l-20.998716.000021s0-11.333386 0-17.00008h21.000054z" opacity=".3" stroke="#000" stroke-linejoin="round" stroke-width=".999922"/></g></g><g fill="none" stroke="#ce5c00" stroke-linecap="round"><path d="m14 8.5 20.5-.007071"/><path d="m14 19.5 20.499999-.0071"/><path d="m31.492929 5.492879v17"/><path d="m16.492929 5.492879v17"/></g></g><g clip-path="url(#k)"><g transform="translate(-10)"><g transform="translate(-2)"><path d="m3.500001 22h21v2h-21z" fill="url(#g)" opacity=".15"/><path d="m3.4999999 22.000085v1.999891c-.6204724.0038-1.4999999-.448075-1.4999999-1.000075 0-.551999.6924-.999816 1.4999999-.999816z" fill="url(#b)" opacity=".15"/><path d="m24.5 22.000085v1.999891c.620472.0038 1.5-.448075 1.5-1.000075 0-.551999-.6924-.999816-1.5-.999816z" fill="url(#d)" opacity=".15"/></g><path d="m22.500038 5.499955c0 3.8955809-.0014 17.000059-.0014 17.000059l-20.998716.000021s0-11.333386 0-17.00008h21.000054z" fill="url(#h)"/><g fill="none"><path d="m2.4999999 21.5v-15.0000003h19.0000001v15.0000003z" stroke="url(#i)" stroke-linecap="round"/><path d="m22.500038 5.499955c0 3.8955809-.0014 17.000059-.0014 17.000059l-20.998716.000021s0-11.333386 0-17.00008h21.000054z" opacity=".3" stroke="#000" stroke-linejoin="round" stroke-width=".999922"/></g></g><g fill="none" stroke="#ce5c00" stroke-linecap="round" transform="matrix(0 1 1 0 -9.992879 1.992879)"><path d="m6.507121 21.992879-.007071-20.4999998"/><path d="m17.507121 21.992879-.007071-20.4999994"/><path d="m3.5 4.4999504h17"/><path d="m4.007121 19.492879h16"/></g></g></svg>

<?xml version="1.0" encoding="UTF-8" standalone="no"?>
<svg
   xmlns:dc="http://purl.org/dc/elements/1.1/"
   xmlns:cc="http://creativecommons.org/ns#"
   xmlns:rdf="http://www.w3.org/1999/02/22-rdf-syntax-ns#"
   xmlns:svg="http://www.w3.org/2000/svg"
   xmlns="http://www.w3.org/2000/svg"
   xmlns:xlink="http://www.w3.org/1999/xlink"
   xmlns:sodipodi="http://sodipodi.sourceforge.net/DTD/sodipodi-0.dtd"
   xmlns:inkscape="http://www.inkscape.org/namespaces/inkscape"
   viewBox="0 0 26 26"
   version="1.1"
   id="svg86"
   sodipodi:docname="formatmirror_24x24.svg"
   inkscape:version="0.92.3 (unknown)"
   inkscape:export-filename="/home/rizmut/Dokumen/Rizmut/Github/libreoffice-style-elementary/images_elementary/sw/res/sidebar/pageproppanel/formatmirror_24x24.png"
   inkscape:export-xdpi="96"
   inkscape:export-ydpi="96">
  <metadata
     id="metadata92">
    <rdf:RDF>
      <cc:Work
         rdf:about="">
        <dc:format>image/svg+xml</dc:format>
        <dc:type
           rdf:resource="http://purl.org/dc/dcmitype/StillImage" />
        <dc:title></dc:title>
      </cc:Work>
    </rdf:RDF>
  </metadata>
  <defs
     id="defs90">
    <linearGradient
       id="i"
       gradientTransform="matrix(0.04349113,0,0,0.0082353,-1.718936,18.980547)"
       gradientUnits="userSpaceOnUse"
       x1="302.85715"
       x2="302.85715"
       y1="366.64789"
       y2="609.50507">
      <stop
         offset="0"
         stop-opacity="0"
         id="stop34" />
      <stop
         offset=".5"
         id="stop36" />
      <stop
         offset="1"
         stop-opacity="0"
         id="stop38" />
    </linearGradient>
    <radialGradient
       id="j"
       cx="605.71429"
       cy="486.64789"
       gradientTransform="matrix(-0.01204859,0,0,0.0082353,10.761206,18.980564)"
       gradientUnits="userSpaceOnUse"
       r="117.14286"
       xlink:href="#b-3" />
    <linearGradient
       id="b-3">
      <stop
         offset="0"
         id="stop3" />
      <stop
         offset="1"
         stop-opacity="0"
         id="stop5" />
    </linearGradient>
    <radialGradient
       id="k"
       cx="605.71429"
       cy="486.64789"
       gradientTransform="matrix(0.01204859,0,0,0.0082353,17.238794,18.980564)"
       gradientUnits="userSpaceOnUse"
       r="117.14286"
       xlink:href="#b-3" />
    <linearGradient
       id="l"
       gradientTransform="matrix(0,0.48571543,-0.45629666,0,23.651133,2.342824)"
       gradientUnits="userSpaceOnUse"
       x1="9.8481627"
       x2="44.18507"
       y1="29.289719"
       y2="26.732151">
      <stop
         offset="0"
         stop-color="#f4f4f4"
         id="stop43" />
      <stop
         offset="1"
         stop-color="#dbdbdb"
         id="stop45" />
    </linearGradient>
    <linearGradient
       id="m"
       gradientTransform="matrix(0,0.40540511,-0.51351351,0,24.32432,4.269687)"
       gradientUnits="userSpaceOnUse"
       x1="4.8433752"
       x2="39.786461"
       y1="23.277712"
       y2="24.30217">
      <stop
         offset="0"
         stop-color="#fff"
         id="stop48" />
      <stop
         offset=".13011844"
         stop-color="#fff"
         stop-opacity=".235294"
         id="stop50" />
      <stop
         offset="1"
         stop-color="#fff"
         stop-opacity=".156863"
         id="stop52" />
      <stop
         offset="1"
         stop-color="#fff"
         stop-opacity=".392157"
         id="stop54" />
    </linearGradient>
    <linearGradient
       inkscape:collect="always"
       xlink:href="#i"
       id="linearGradient1002"
       gradientUnits="userSpaceOnUse"
       gradientTransform="matrix(0.04349113,0,0,0.0082353,-1.718936,18.980547)"
       x1="302.85715"
       y1="366.64789"
       x2="302.85715"
       y2="609.50507" />
    <radialGradient
       inkscape:collect="always"
       xlink:href="#b-3"
       id="radialGradient1004"
       gradientUnits="userSpaceOnUse"
       gradientTransform="matrix(-0.01204859,0,0,0.0082353,10.761206,18.980564)"
       cx="605.71429"
       cy="486.64789"
       r="117.14286" />
    <radialGradient
       inkscape:collect="always"
       xlink:href="#b-3"
       id="radialGradient1006"
       gradientUnits="userSpaceOnUse"
       gradientTransform="matrix(0.01204859,0,0,0.0082353,17.238794,18.980564)"
       cx="605.71429"
       cy="486.64789"
       r="117.14286" />
    <linearGradient
       inkscape:collect="always"
       xlink:href="#l"
       id="linearGradient1008"
       gradientUnits="userSpaceOnUse"
       gradientTransform="matrix(0,0.48571543,-0.45629666,0,23.651133,2.342824)"
       x1="9.8481627"
       y1="29.289719"
       x2="44.18507"
       y2="26.732151" />
    <linearGradient
       inkscape:collect="always"
       xlink:href="#m"
       id="linearGradient1010"
       gradientUnits="userSpaceOnUse"
       gradientTransform="matrix(0,0.40540511,-0.51351351,0,24.32432,4.269687)"
       x1="4.8433752"
       y1="23.277712"
       x2="39.786461"
       y2="24.30217" />
    <clipPath
       clipPathUnits="userSpaceOnUse"
       id="clipPath1228">
      <rect
         style="opacity:1;fill:#0e141f;fill-opacity:1;stroke:none;stroke-width:1;stroke-linecap:round;stroke-linejoin:round;stroke-miterlimit:4;stroke-dasharray:none;stroke-dashoffset:0;stroke-opacity:0.47058824"
         id="rect1230"
         width="13"
         height="19"
         x="13"
         y="5" />
    </clipPath>
    <clipPath
       clipPathUnits="userSpaceOnUse"
       id="clipPath1232">
      <rect
         y="5"
         x="0"
         height="19"
         width="13"
         id="rect1234"
         style="opacity:1;fill:#0e141f;fill-opacity:1;stroke:none;stroke-width:1;stroke-linecap:round;stroke-linejoin:round;stroke-miterlimit:4;stroke-dasharray:none;stroke-dashoffset:0;stroke-opacity:0.47058824" />
    </clipPath>
  </defs>
  <sodipodi:namedview
     pagecolor="#ffffff"
     bordercolor="#666666"
     borderopacity="1"
     objecttolerance="10"
     gridtolerance="10"
     guidetolerance="10"
     inkscape:pageopacity="0"
     inkscape:pageshadow="2"
     inkscape:window-width="1366"
     inkscape:window-height="706"
     id="namedview88"
     showgrid="true"
     inkscape:zoom="12.836708"
     inkscape:cx="9.8015788"
     inkscape:cy="12.882129"
     inkscape:window-x="0"
     inkscape:window-y="0"
     inkscape:window-maximized="1"
     inkscape:current-layer="svg86">
    <inkscape:grid
       type="xygrid"
       id="grid1098"
       spacingx="0.5"
       spacingy="0.5"
       empspacing="2" />
  </sodipodi:namedview>
  <linearGradient
     id="a">
    <stop
       offset="0"
       id="stop2" />
    <stop
       offset="1"
       stop-opacity="0"
       id="stop4" />
  </linearGradient>
  <radialGradient
     id="b"
     cx="605.71429"
     cy="486.64789"
     gradientTransform="matrix(-0.01204859,0,0,0.0082353,10.761206,18.980564)"
     gradientUnits="userSpaceOnUse"
     r="117.14286"
     xlink:href="#a" />
  <radialGradient
     id="c"
     cx="605.71429"
     cy="486.64789"
     gradientTransform="matrix(0.01204859,0,0,0.0082353,17.238794,18.980564)"
     gradientUnits="userSpaceOnUse"
     r="117.14286"
     xlink:href="#a" />
  <linearGradient
     id="d"
     gradientTransform="matrix(.04349113 0 0 .0082353 -1.718936 18.980547)"
     gradientUnits="userSpaceOnUse"
     x1="302.85715"
     x2="302.85715"
     y1="366.64789"
     y2="609.50507">
    <stop
       offset="0"
       stop-opacity="0"
       id="stop9" />
    <stop
       offset=".5"
       id="stop11" />
    <stop
       offset="1"
       stop-opacity="0"
       id="stop13" />
  </linearGradient>
  <linearGradient
     id="e"
     gradientTransform="matrix(0,0.48571543,-0.45629666,0,35.651133,2.342824)"
     gradientUnits="userSpaceOnUse"
     x1="25.132275"
     x2="25.132275"
     y1=".985206"
     y2="47.013336">
    <stop
       offset="0"
       stop-color="#f4f4f4"
       id="stop16" />
    <stop
       offset="1"
       stop-color="#dbdbdb"
       id="stop18" />
  </linearGradient>
  <linearGradient
     id="f"
     gradientTransform="matrix(0 .40540511 -.51351351 0 24.32432 2.269687)"
     gradientUnits="userSpaceOnUse"
     x1="23.99999"
     x2="23.99999"
     y1="6.473675"
     y2="41.526306">
    <stop
       offset="0"
       stop-color="#fff"
       id="stop21" />
    <stop
       offset="0"
       stop-color="#fff"
       stop-opacity=".235294"
       id="stop23" />
    <stop
       offset="1"
       stop-color="#fff"
       stop-opacity=".156863"
       id="stop25" />
    <stop
       offset="1"
       stop-color="#fff"
       stop-opacity=".392157"
       id="stop27" />
  </linearGradient>
  <g
     id="g1264">
    <g
       clip-path="url(#clipPath1228)"
       id="g1211">
      <g
         id="g961"
         transform="translate(12)">
        <g
           id="g63"
           transform="translate(-2)">
          <path
             id="path57"
             d="m 3.500001,22 h 21 v 2 h -21 z"
             inkscape:connector-curvature="0"
             style="opacity:0.15;fill:url(#i)" />
          <path
             id="path59"
             d="m 3.4999999,22.000085 v 1.999891 C 2.8795275,24.003776 2,23.551901 2,22.999901 2,22.447902 2.6924,22.000085 3.4999999,22.000085 Z"
             inkscape:connector-curvature="0"
             style="opacity:0.15;fill:url(#j)" />
          <path
             id="path61"
             d="m 24.5,22.000085 v 1.999891 c 0.620472,0.0038 1.5,-0.448075 1.5,-1.000075 0,-0.551999 -0.6924,-0.999816 -1.5,-0.999816 z"
             inkscape:connector-curvature="0"
             style="opacity:0.15;fill:url(#k)" />
        </g>
        <path
           id="path65"
           d="m 22.500038,5.499955 c 0,3.8955809 -0.0014,17.000059 -0.0014,17.000059 l -20.998716,2.1e-5 c 0,0 0,-11.333386 0,-17.00008 h 21.000054 z"
           style="fill:url(#l)"
           inkscape:connector-curvature="0" />
        <path
           id="path67"
           d="M 2.4999999,21.5 V 6.4999997 H 21.5 V 21.5 Z"
           style="fill:none;stroke:url(#m);stroke-linecap:round"
           inkscape:connector-curvature="0" />
        <path
           id="path69"
           d="m 22.500038,5.499955 c 0,3.8955809 -0.0014,17.000059 -0.0014,17.000059 l -20.998716,2.1e-5 c 0,0 0,-11.333386 0,-17.00008 h 21.000054 z"
           style="opacity:0.3;fill:none;stroke:#000000;stroke-width:0.99992198;stroke-linejoin:round"
           inkscape:connector-curvature="0" />
      </g>
      <g
         id="g1137">
        <path
           sodipodi:nodetypes="cc"
           d="M 14,8.5 34.5,8.492929"
           id="path44"
           inkscape:connector-curvature="0"
           style="fill:none;stroke:#ce5c00;stroke-linecap:round" />
        <path
           sodipodi:nodetypes="cc"
           d="m 14,19.5 20.499999,-0.0071"
           id="path46"
           inkscape:connector-curvature="0"
           style="fill:none;stroke:#ce5c00;stroke-linecap:round" />
        <path
           d="m 31.492929,5.492879 v 17"
           id="path48"
           inkscape:connector-curvature="0"
           style="fill:none;stroke:#ce5c00;stroke-linecap:round" />
        <path
           d="m 16.492929,5.492879 v 17"
           id="path50"
           inkscape:connector-curvature="0"
           style="fill:none;stroke:#ce5c00;stroke-linecap:round" />
      </g>
    </g>
    <g
       clip-path="url(#clipPath1232)"
       id="g1131">
      <g
         transform="translate(-10)"
         id="g1000">
        <g
           transform="translate(-2)"
           id="g992">
          <path
             style="opacity:0.15;fill:url(#linearGradient1002)"
             inkscape:connector-curvature="0"
             d="m 3.500001,22 h 21 v 2 h -21 z"
             id="path986" />
          <path
             style="opacity:0.15;fill:url(#radialGradient1004)"
             inkscape:connector-curvature="0"
             d="m 3.4999999,22.000085 v 1.999891 C 2.8795275,24.003776 2,23.551901 2,22.999901 2,22.447902 2.6924,22.000085 3.4999999,22.000085 Z"
             id="path988" />
          <path
             style="opacity:0.15;fill:url(#radialGradient1006)"
             inkscape:connector-curvature="0"
             d="m 24.5,22.000085 v 1.999891 c 0.620472,0.0038 1.5,-0.448075 1.5,-1.000075 0,-0.551999 -0.6924,-0.999816 -1.5,-0.999816 z"
             id="path990" />
        </g>
        <path
           inkscape:connector-curvature="0"
           style="fill:url(#linearGradient1008)"
           d="m 22.500038,5.499955 c 0,3.8955809 -0.0014,17.000059 -0.0014,17.000059 l -20.998716,2.1e-5 c 0,0 0,-11.333386 0,-17.00008 h 21.000054 z"
           id="path994" />
        <path
           inkscape:connector-curvature="0"
           style="fill:none;stroke:url(#linearGradient1010);stroke-linecap:round"
           d="M 2.4999999,21.5 V 6.4999997 H 21.5 V 21.5 Z"
           id="path996" />
        <path
           inkscape:connector-curvature="0"
           style="opacity:0.3;fill:none;stroke:#000000;stroke-width:0.99992198;stroke-linejoin:round"
           d="m 22.500038,5.499955 c 0,3.8955809 -0.0014,17.000059 -0.0014,17.000059 l -20.998716,2.1e-5 c 0,0 0,-11.333386 0,-17.00008 h 21.000054 z"
           id="path998" />
      </g>
      <g
         transform="matrix(0,1,1,0,-9.992879,1.992879)"
         id="g80"
         style="fill:none;stroke:#ce5c00;stroke-linecap:round">
        <path
           d="M 6.507121,21.992879 6.50005,1.4928792"
           id="path72"
           inkscape:connector-curvature="0"
           sodipodi:nodetypes="cc" />
        <path
           d="M 17.507121,21.992879 17.50005,1.4928796"
           id="path74"
           inkscape:connector-curvature="0"
           sodipodi:nodetypes="cc" />
        <path
           d="m 3.5,4.4999504 h 17"
           id="path76"
           inkscape:connector-curvature="0" />
        <path
           d="m 4.007121,19.492879 h 16"
           id="path78"
           inkscape:connector-curvature="0"
           sodipodi:nodetypes="cc" />
      </g>
    </g>
  </g>
</svg>
